X:188
T:Darren Uchaf
M:4/4
L:1/4
Q:100
C:Peter Stacey
R:Slow air
K:D
d2 A G | A3 d | G2 F2 | E4 | d2 A G | A3 d | G2 F2
| D4 :||
d2 c d | A3 A | B2 d2 | c3 B/c/ | d2 c d | A3 A | G2
F2 |1 E4 :||2 D4 ||
